src/assets/icons/footer/google-pay.svg

<svg width="73" height="35" viewBox="0 0 73 35" fill="none" xmlns="http://www.w3.org/2000/svg">
<g clip-path="url(#clip0_5058_186)">
<path d="M34.4924 18.097V26.6403H31.7549V5.51172H38.8724C40.6061 5.51172 42.2486 6.15476 43.5261 7.34899C44.8036 8.45135 45.4424 10.1049 45.4424 11.8503C45.4424 13.5957 44.8036 15.1574 43.5261 16.3516C42.2486 17.5458 40.6974 18.1889 38.8724 18.1889L34.4924 18.097ZM34.4924 8.0839V15.433H39.0549C40.0586 15.433 41.0624 15.0655 41.7011 14.3306C43.1611 12.9527 43.1611 10.6561 41.7924 9.27812L41.7011 9.18626C40.9711 8.45135 40.0586 7.99203 39.0549 8.0839H34.4924Z" fill="white"/>
<path d="M51.7386 11.7583C53.7461 11.7583 55.2974 12.3095 56.4836 13.4118C57.6699 14.5142 58.2174 15.984 58.2174 17.8213V26.6402H55.6624V24.6192H55.5711C54.4761 26.2727 52.9249 27.0995 51.0999 27.0995C49.5486 27.0995 48.1799 26.6402 47.0849 25.7216C46.0811 24.8029 45.4424 23.5168 45.4424 22.1389C45.4424 20.6691 45.9899 19.4748 47.0849 18.5562C48.1799 17.6376 49.7311 17.2701 51.5561 17.2701C53.1986 17.2701 54.4761 17.5457 55.4799 18.1887V17.5457C55.4799 16.6271 55.1149 15.7084 54.3849 15.1573C53.6549 14.5142 52.7424 14.1468 51.7386 14.1468C50.1874 14.1468 49.0011 14.7898 48.1799 16.0759L45.8074 14.6061C47.2674 12.6769 49.1836 11.7583 51.7386 11.7583ZM48.2711 22.2307C48.2711 22.9657 48.6361 23.6087 49.1836 23.9761C49.8224 24.4355 50.5524 24.7111 51.2824 24.7111C52.3774 24.7111 53.4724 24.2517 54.2936 23.425C55.2061 22.5982 55.6624 21.5877 55.6624 20.4853C54.8411 19.8423 53.6549 19.4748 52.1036 19.4748C51.0086 19.4748 50.0961 19.7504 49.3661 20.3016C48.6361 20.7609 48.2711 21.404 48.2711 22.2307Z" fill="white"/>
<path d="M73.0001 12.2178L63.9663 33.0708H61.2288L64.6051 25.8136L58.6738 12.3096H61.5938L65.8826 22.6902H65.9738L70.1713 12.3096H73.0001V12.2178Z" fill="white"/>
<path d="M23.6337 16.2596C23.6337 15.4328 23.5424 14.6061 23.4512 13.7793H12.0449V18.4643H18.5237C18.2499 19.9342 17.4287 21.3121 16.1512 22.1389V25.1704H20.0749C22.3562 23.0575 23.6337 19.9342 23.6337 16.2596Z" fill="#4285F4"/>
<path d="M12.0451 28.1102C15.3301 28.1102 18.0676 27.0078 20.0751 25.1705L16.1513 22.139C15.0563 22.8739 13.6876 23.3333 12.0451 23.3333C8.94259 23.3333 6.20509 21.2204 5.29259 18.2808H1.27759V21.4041C3.37634 25.538 7.48259 28.1102 12.0451 28.1102Z" fill="#34A853"/>
<path d="M5.29261 18.2811C4.74511 16.8112 4.74511 15.1577 5.29261 13.596V10.4727H1.27761C-0.456143 13.8716 -0.456143 17.9136 1.27761 21.4044L5.29261 18.2811Z" fill="#FBBC04"/>
<path d="M12.0449 8.63536C13.7787 8.63536 15.4212 9.27841 16.6987 10.4726L20.1662 6.98182C17.9762 4.96082 15.0562 3.76659 12.1362 3.85846C7.57365 3.85846 3.37615 6.43064 1.36865 10.5645L5.38365 13.6879C6.2049 10.7482 8.9424 8.63536 12.0449 8.63536Z" fill="#EA4335"/>
</g>
<defs>
<clipPath id="clip0_5058_186">
<rect width="73" height="35" fill="white"/>
</clipPath>
</defs>
</svg>

<svg xmlns="http://www.w3.org/2000/svg" fill="none" viewBox="0 0 76 35" class="h-[35px]">
    <path fill="#fff" d="M34.492 18.097v8.543h-2.737V5.512h7.117c1.734 0 3.377.643 4.654 1.837 1.278 1.102 1.916 2.756 1.916 4.501s-.638 3.307-1.916 4.502c-1.277 1.194-2.829 1.837-4.654 1.837zm0-10.013v7.349h4.563c1.004 0 2.007-.367 2.646-1.102a3.54 3.54 0 0 0 .091-5.053l-.09-.092c-.73-.735-1.643-1.194-2.647-1.102zM51.739 11.758c2.007 0 3.558.552 4.745 1.654 1.186 1.102 1.733 2.572 1.733 4.41v8.818h-2.555v-2.02h-.09c-1.096 1.653-2.647 2.48-4.472 2.48-1.551 0-2.92-.46-4.015-1.378-1.004-.92-1.643-2.205-1.643-3.583q0-2.205 1.643-3.583c1.095-.918 2.646-1.286 4.471-1.286 1.643 0 2.92.276 3.924.919v-.643c0-.919-.365-1.838-1.095-2.389a3.96 3.96 0 0 0-2.646-1.01q-2.327 0-3.56 1.929l-2.372-1.47c1.46-1.93 3.377-2.848 5.932-2.848M48.27 22.231c0 .735.365 1.378.913 1.745.638.46 1.368.735 2.098.735 1.095 0 2.19-.46 3.012-1.286.912-.827 1.368-1.837 1.368-2.94-.82-.643-2.007-1.01-3.558-1.01q-1.643 0-2.738.827-1.095.689-1.095 1.929M73 12.218 63.966 33.07H61.23l3.376-7.257-5.931-13.504h2.92l4.289 10.38h.09l4.198-10.38h2.83z"></path>
    <path fill="#4285F4" d="M23.634 16.26c0-.827-.092-1.654-.183-2.48H12.045v4.684h6.479c-.274 1.47-1.095 2.848-2.373 3.675v3.031h3.924c2.281-2.113 3.559-5.236 3.559-8.91"></path>
    <path fill="#34A853" d="M12.045 28.11c3.285 0 6.023-1.102 8.03-2.94l-3.924-3.031c-1.095.735-2.463 1.194-4.106 1.194-3.102 0-5.84-2.113-6.752-5.052H1.278v3.123c2.098 4.134 6.205 6.706 10.767 6.706"></path>
    <path fill="#FBBC04" d="M5.293 18.281c-.548-1.47-.548-3.123 0-4.685v-3.123H1.278c-1.734 3.399-1.734 7.44 0 10.931z"></path>
    <path fill="#EA4335" d="M12.045 8.635c1.734 0 3.376.643 4.654 1.838l3.467-3.491c-2.19-2.021-5.11-3.215-8.03-3.124-4.562 0-8.76 2.573-10.767 6.707l4.015 3.123c.82-2.94 3.558-5.053 6.66-5.053"></path>
  <defs>
    <clipPath id="a">
      <path fill="#fff" d="M0 0h76v35H0z"></path>
    </clipPath>
  </defs>
</svg>
